X:1
T: Da Guiser's March
C:G. Stove
R:Reel
Q: 232
K:D
M:4/4
L:1/8
A,2|D3E F2 A2|d4 A2 d2|c3d ed cB|A2 D2 F2 A2|G2 E2 A3F|F2 D2 D2 F2|EF GA BA GF|E2 A2 C2 E2|
D3E F2 A2|d4 A2 d2|c3d ed cB|A2 d2 F3D|G2 B2 E3F|F2 D2 d3f|ed cB AG FE|F2 D2 D2 fg|
a3f d2 A2|B6 d2|c3d ed cB|A2 d2 f2 a2|b2 B2 g3b|a2 A2 d3f|ga ba gf ed|c2 A2 A2 fg|
a3f d2 A2|B3G B2 d2|c3d ed cB|A2 d2 f2 a2|b2 B2 B3b|a2 A2 A3a|gf ed cB AG|F2 D2 D2||
